X:1
T:Title
%%score { ( 1 3 ) | ( 2 4 ) }
L:1/8
M:4/4
K:Ab
V:1 treble nm="Grand Piano"
V:3 treble 
V:2 bass 
V:4 bass 
V:1
 z4 z2[Q:1/4=100] [CA][DB] | [Ec]2 [Ec]2 [Ec]2 [EA]2 | [DF][FA][FA][DF] [CE]2 [A,C][B,D] | %3
 [CE]2 [CE][DF] [CE][CEA] [Ec]2 | [EB]6 [EA][EB] | [Ec]2 [Ec]2 [Ec]2 [EA]2 | %6
[M:3/4] [DF][FA] [FA][FB] [FA]2 |[M:1/4] [EG]F |[M:4/4] E2 A2 B2 FG |[M:3/4] [CA]6 |[M:1/4] c>d | %11
[M:4/4] e2 e2 e2 [Ec]>[EB] | [FA]2 [FA]2 [FA]2 [A,EG]>[A,DF] | [A,CE]2 [CEA]2 [Ec]2 [Ae]2 | e4 z4 | %15
 [Ec]2 [Ec]2 [Ec]2 [EA]2 |[M:9/8] [FB][FA][DF] [FA] [Fd]2- [Fd]FF |[M:4/4] E2 A2 B2 FG | %18
[M:3/4] [CA]6 |] %19
V:2
 z4 z2 [A,,A,][A,,A,] | [A,,A,]2 [A,,A,]2 [A,,A,]2 [C,A,]2 | %2
 [D,A,][D,D][D,D][D,A,] [A,,A,]2 [A,,E,][A,,E,] | [A,,A,]2 [A,,A,][A,,A,] [A,,A,]A,, [A,,A,]2 | %4
 [E,G,]6 [C,A,][B,,G,] | [A,,A,]2 [A,,A,]2 [A,,A,]2 [C,A,]2 | %6
[M:3/4] [D,A,][D,D] [D,D][D,D] [D,D]2 |[M:1/4] [D,A,][D,A,D] | %8
[M:4/4] [E,A,C]2 [E,CE]2 [E,DE]2 [E,D][E,B,D] |[M:3/4] [A,,A,]6 |[M:1/4] [A,E]>[A,B,E] | %11
[M:4/4] [A,CE]2 [G,DE]2 [A,CE]2 [A,,A,]>[C,A,] | [D,A,]2 [D,D]2 [D,D]2 D,>D, | %13
 A,,2 A,,2 [A,,A,]2 [C,A,]2 | B,4 z4 | [A,,A,]2 [A,,A,]2 [A,,A,]2 [C,A,]2 | %16
[M:9/8] [D,A,][D,D][D,A,] [D,A,] [D,A,]2- [D,A,][D,A,D][D,A,D] | %17
[M:4/4] [E,A,C]2 [E,CE]2 [E,DE]2 [E,D][E,B,D] |[M:3/4] [A,,A,]6 |] %19
V:3
 x8 | x8 | x8 | x8 | x8 | x8 |[M:3/4] x6 |[M:1/4] x2 |[M:4/4] x8 |[M:3/4] x6 |[M:1/4] x2 | %11
[M:4/4] x8 | x8 | x8 | G4- [GB]2 c>d | x8 |[M:9/8] x9 |[M:4/4] x8 |[M:3/4] x6 |] %19
V:4
 x8 | x8 | x8 | x8 | x8 | x8 |[M:3/4] x6 |[M:1/4] x2 |[M:4/4] x8 |[M:3/4] x6 |[M:1/4] x2 | %11
[M:4/4] x8 | x8 | x8 | E,4- [E,E]2 [E,G,E]>[E,G,E] | x8 |[M:9/8] x9 |[M:4/4] x8 |[M:3/4] x6 |] %19

